assets/icons/action/new_custom95.svg

<?xml version="1.0"?><svg xmlns="http://www.w3.org/2000/svg" width="52" height="52" viewBox="0 0 52 52"><g fill="#fff"><path d="m28.4 10.2v-3.4h0.8c1.3 0 2.4-1 2.4-2.4 0-1.3-1-2.4-2.4-2.4h-6.4c-1.3 0-2.4 1-2.4 2.4 0 1.3 1 2.4 2.4 2.4h0.8v3.4c-9.9 1.2-17.6 9.6-17.6 19.8 0 11 9 20 20 20s20-9 20-20c0-10.2-7.7-18.6-17.6-19.8z m-2.4 35c-8.4 0-15.2-6.8-15.2-15.2s6.8-15.2 15.2-15.2 15.2 6.8 15.2 15.2-6.8 15.2-15.2 15.2z m5.3-23.4l-3.7 3.7c-0.5-0.2-1-0.3-1.6-0.3-2.6 0-4.8 2.2-4.8 4.8s2.2 4.8 4.8 4.8 4.8-2.2 4.8-4.8c0-0.6-0.1-1.1-0.3-1.6l3.7-3.7c0.8-0.8 0.8-2.1 0-2.9-0.8-0.8-2.1-0.8-2.9 0z"></path></g></svg>

<svg xmlns="http://www.w3.org/2000/svg" x="0px" y="0px"
	 width="52px" height="52px" viewBox="0 0 52 52" enable-background="new 0 0 52 52" xml:space="preserve">
<g>
	<path fill="#FFFFFF" d="M28.4,10.2V6.8h0.8c1.3,0,2.4-1,2.4-2.4l0,0c0-1.3-1-2.4-2.4-2.4h-6.4c-1.3,0-2.4,1-2.4,2.4l0,0
		c0,1.3,1,2.4,2.4,2.4h0.8v3.4C13.7,11.4,6,19.8,6,30c0,11,9,20,20,20s20-9,20-20C46,19.8,38.3,11.4,28.4,10.2z M26,45.2
		c-8.4,0-15.2-6.8-15.2-15.2S17.6,14.8,26,14.8S41.2,21.6,41.2,30S34.4,45.2,26,45.2z"/>
	<path fill="#FFFFFF" d="M31.3,21.8l-3.7,3.7c-0.5-0.2-1-0.3-1.6-0.3c-2.6,0-4.8,2.2-4.8,4.8s2.2,4.8,4.8,4.8s4.8-2.2,4.8-4.8
		c0-0.6-0.1-1.1-0.3-1.6l3.7-3.7c0.8-0.8,0.8-2.1,0-2.9C33.4,21,32.1,21,31.3,21.8z"/>
</g>
</svg>
